X: 18683
T: I'm A' Doon For Lack O' Johnnie
R: barndance
M: 4/4
K: Gmajor
D2|:G3F E2FG|A3F D2EF|G3F E2D2|EG3- G2D2:|
G2d2 d2GA|B2A2 A2D2|G2Bd e3d|B2d4D2|
G2d2 d2GA|B2A2 A2EF|G3F E3D|EG3 -G2||

